X: 43114
T: Wine & Firewood
R: reel
M: 4/4
K: Bminor
B2B2AFEB-|BB2d BAFD|E3F EDB,E-|EEGF DEFA|B2B2AFEB-|
BB2d BAFD|1 E3F EDB,G-|GFFE DEFA:|2 E4-EDB,G-|GFFE EDB,A,||
|:B,2B,A, B,DFE-|EDEF EDB,A,|~B,3A, B,DFA-|AFAB AFED|B,2B,A, B,DFE-|
EDEF EDB,A,|1 B,DFA- AFAB-|BAFE EDB,A,:|2 B,DFA- AFAB-|BFAd- dcBA||

